**kern	**kern
*staff2	*staff1
*clefF4	*clefG2
*M3/4	*M3/4
*k[b-]	*k[b-]
*F:	*F
=-	=-
*^	*
4e-	4F]	12fL
.	.	12g
.	.	12aJ)
=57	=57	=57
2d	2.F	(12b-L
.	.	12cc
.	.	12aJ
.	.	12b-L
.	.	12dd
.	.	12ccJ
4e	.	12ddL
.	.	12cc
.	.	12b-J)
=58	=58	=58
4f	4F	(12b-L
.	.	12a
.	.	12g#J)
12r	4r	12a'L
(12FL	.	(12a
12EJ	.	12g#J
12FL	4r	12aL
12G	.	12b-
12AJ)	.	12ccJ)
*v	*v	*
=59	=59
12B-'L	12dd'L
(12c	(12ee
12AJ	12cc#J
12B-L	12ddL
12d	12ff
12c#J	12eeJ
12dL	12ffL
12c#	12ee
12B-J)	12ddJ)
=60	=60
(12B-L	(12ddL
12A	12cc
12G#J)	12bJ)
4A	4cc
4r	4r
=61	=61
*	*^
12CCL	(8.ccL	4e 4g
(12BB	.	.
12CJ)	.	.
.	16eeJk)	.
12EEL	8g'L	4r
(12D#	.	.
.	8g'J	.
12EJ)	.	.
12GGL	8r	4r
(12F#	.	.
.	8f 8b	.
12GJ)	.	.
=62	=62	=62
12CL	(8.ccL	4e 4g
(12B	.	.
12cJ)	.	.
.	16eeJk)	.
12EL	8g'L	4r
(12d#	.	.
.	8g'J	.
12eJ)	.	.
12GGL	8r	4r
(12F#	.	.
.	8f 8b	.
12GJ)	.	.
=63	=63	=63
12CL	(8.ccL	4e
(12B	.	.
12cJ)	.	.
.	16eeJk)	.
12EEL	8gg'L	4r
(12D#	.	.
.	8gg'J	.
12EJ)	.	.
12GGL	8r	4r
(12F#	.	.
.	8f 8b	.
12GJ)	.	.
*	*v	*v
=64	=64
4CC; 4C;	4e; 4g; [4cc;
8r	(16ccLL]
.	16cc#
(8A	16ccc#
.	16cc#JJ)
8B-L	(16dddLL
.	16dd
8AJ)	16ccc
.	16ccJJ)
=65	=65
*^	*
(8GL	2.C	(16bb-LL
.	.	16b-
8FJ	.	16aa
.	.	16aJJ
8EL	.	16ggLL
.	.	16g
8GJ	.	16bb-
.	.	16b-JJ
8FL	.	16aaLL
.	.	16a
8EJ)	.	16gg
.	.	16gJJ)
=66	=66	=66
8B-L	4F	8eL 8ee
8AJ	.	8fJ 8ff
4A	4F	4f 4ff
4r	4r	4r
*v	*v	*
*-	*-
